symbols/web/feed/materialsymbolsrounded/feed_wght100grad200_48px.svg

<svg xmlns="http://www.w3.org/2000/svg" height="48" width="48"><path d="M9.55 40.2q-.65 0-1.2-.55-.55-.55-.55-1.2V9.55q0-.65.55-1.2.55-.55 1.2-.55H31.3l8.9 8.9v21.75q0 .65-.55 1.2-.55.55-1.2.55Zm0-1.75h28.9V17.8h-6.6q-.7 0-1.175-.475-.475-.475-.475-1.175v-6.6H9.55Zm6.25-6.5h16.45q.35 0 .6-.275t.25-.625q0-.35-.25-.6t-.6-.25H15.8q-.4 0-.65.25t-.25.65q0 .35.25.6t.65.25Zm0-14.15h7.35q.35 0 .6-.275T24 16.9q0-.35-.25-.6t-.6-.25H15.8q-.4 0-.65.25t-.25.65q0 .35.25.6t.65.25Zm0 7.05h16.45q.35 0 .6-.25t.25-.6q0-.35-.25-.625t-.6-.275H15.8q-.4 0-.65.275T14.9 24q0 .35.25.6t.65.25ZM9.55 9.55v8.25-8.25 28.9Z"/></svg>

<svg xmlns="http://www.w3.org/2000/svg" height="48" width="48"><path d="M9.55 40.2Q8.9 40.2 8.35 39.65Q7.8 39.1 7.8 38.45V9.55Q7.8 8.9 8.35 8.35Q8.9 7.8 9.55 7.8H31.3L40.2 16.7V38.45Q40.2 39.1 39.65 39.65Q39.1 40.2 38.45 40.2ZM9.55 38.45H38.45V17.8H31.85Q31.15 17.8 30.675 17.325Q30.2 16.85 30.2 16.15V9.55H9.55ZM15.8 31.95H32.25Q32.6 31.95 32.85 31.675Q33.1 31.4 33.1 31.05Q33.1 30.7 32.85 30.45Q32.6 30.2 32.25 30.2H15.8Q15.4 30.2 15.15 30.45Q14.9 30.7 14.9 31.1Q14.9 31.45 15.15 31.7Q15.4 31.95 15.8 31.95ZM15.8 17.8H23.15Q23.5 17.8 23.75 17.525Q24 17.25 24 16.9Q24 16.55 23.75 16.3Q23.5 16.05 23.15 16.05H15.8Q15.4 16.05 15.15 16.3Q14.9 16.55 14.9 16.95Q14.9 17.3 15.15 17.55Q15.4 17.8 15.8 17.8ZM15.8 24.85H32.25Q32.6 24.85 32.85 24.6Q33.1 24.35 33.1 24Q33.1 23.65 32.85 23.375Q32.6 23.1 32.25 23.1H15.8Q15.4 23.1 15.15 23.375Q14.9 23.65 14.9 24Q14.9 24.35 15.15 24.6Q15.4 24.85 15.8 24.85ZM9.55 9.55V16.15Q9.55 16.85 9.55 17.325Q9.55 17.8 9.55 17.8V9.55V16.15Q9.55 16.85 9.55 17.325Q9.55 17.8 9.55 17.8V38.45Z"/></svg>
